X: 1
T: Talon's Trip to Thompson Island
M: c
L: 1/8
K: Emix
"E"B3c BAGA|B2E2BcdB|"D"d3c dcBA|"A"GA A/A/A ABcA|
"E"B3c BAGA|BABde3c|[1"D"d2ed efe(d|"B"d)AdfedcA:||
[2"D"d2ed efe(d|"B"d)Adf"E"e2z2||:"E"e3 f eB B/B/B|eBega2ge|
"D"d3c dcBA|"A"GA A/A/A ABcf|"E"e3f eB B/B/B|
eBega2ge|"D"d3c dcBA|[1"B"cBAFE2z2:|[2"B"cBdf"E"e2z2|] 
